assets/img/layout/github.svg

<svg viewBox="0 0 512 516" xmlns="http://www.w3.org/2000/svg"><path d="m76.8 0h358.4a76.82 76.82 0 0 1 76.8 76.8v358.4a76.82 76.82 0 0 1 -76.8 76.8h-358.4a76.82 76.82 0 0 1 -76.8-76.8v-358.4a76.82 76.82 0 0 1 76.8-76.8z" fill="#1b1817" opacity=".5"/><path d="m335 499c14 0 12 17 12 17h-182s-2-17 12-17c13 0 16-6 16-12l-1-50c-71 16-86-28-86-28-12-30-28-37-28-37-24-16 1-16 1-16 26 2 40 26 40 26 22 39 59 28 74 22 2-17 9-28 16-35-57-6-116-28-116-126 0-28 10-51 26-69-3-6-11-32 3-67 0 0 21-7 70 26a232.06 232.06 0 0 1 128 0c49-33 70-26 70-26 14 35 6 61 3 67 16 18 26 41 26 69 0 98-60 120-117 126 10 8 18 24 18 48l-1 70c0 6 3 12 16 12z" fill="#fff" opacity=".7"/></svg>

<svg id="Layer_1" data-name="Layer 1" xmlns="http://www.w3.org/2000/svg" viewBox="0 0 512 516"><defs><style>.cls-1{fill:#1b1817;opacity:0.5;}.cls-1,.cls-2{isolation:isolate;}.cls-2{fill:#fff;opacity:0.7;}</style></defs><title>github</title><path class="cls-1" d="M76.8,0H435.2A76.82,76.82,0,0,1,512,76.8V435.2A76.82,76.82,0,0,1,435.2,512H76.8A76.82,76.82,0,0,1,0,435.2V76.8A76.82,76.82,0,0,1,76.8,0Z" transform="translate(0 0)"/><path class="cls-2" d="M335,499c14,0,12,17,12,17H165s-2-17,12-17c13,0,16-6,16-12l-1-50c-71,16-86-28-86-28-12-30-28-37-28-37-24-16,1-16,1-16,26,2,40,26,40,26,22,39,59,28,74,22,2-17,9-28,16-35-57-6-116-28-116-126,0-28,10-51,26-69-3-6-11-32,3-67,0,0,21-7,70,26a232.06,232.06,0,0,1,128,0c49-33,70-26,70-26,14,35,6,61,3,67,16,18,26,41,26,69,0,98-60,120-117,126,10,8,18,24,18,48l-1,70C319,493,322,499,335,499Z" transform="translate(0 0)"/></svg>
